germany/municipalities/03459021.svg

﻿<?xml version="1.0" encoding="UTF-8" standalone="no"?>
<!DOCTYPE svg PUBLIC "-//W3C//DTD SVG 1.0//EN" "http://www.w3.org/TR/2001/REC-SVG-20010904/DTD/svg10.dtd">
<!-- Created with Inkscape (http://www.inkscape.org/) -->
<svg
   xmlns:svg="http://www.w3.org/2000/svg"
   xmlns="http://www.w3.org/2000/svg"
   version="1.0"
   width="617.33856"
   height="788.81586"
   id="svg2452">
  <defs
     id="defs2455" />
  <path
     d="M 611.72211,5.616445 L 611.72211,455.50932 C 611.72211,636.86748 475.88131,783.19951 308.36465,783.19951 C 141.45713,783.19951 5.61636,636.86748 5.61636,455.50932 L 5.61636,5.616445 L 611.72211,5.616445"
     id="feld0"
     style="fill:#000000;fill-opacity:1;fill-rule:evenodd;stroke:#000000;stroke-width:11.23279953;stroke-linejoin:miter;stroke-miterlimit:4;stroke-dasharray:none;stroke-opacity:1" />
  <path
     d="M 11.21875,11.21875 L 11.21875,455.5 C 11.21875,482.256 14.226256,508.21284 19.875,533.03125 C 21.300568,531.49415 21.095102,531.69019 22.8125,529.84375 C 31.72557,526.91367 38.98438,528.03354 43.96875,532.5625 C 71.31333,557.40872 47.09724,566.54293 75.03125,587.625 C 97.160721,604.3263 115.5971,582.00688 125.125,572.09375 C 134.65289,563.19458 144.43288,540.7842 126.8125,524.0625 C 99.80718,498.43449 99.5633,530.37005 72.90625,503.46875 C 64.922272,495.41162 67.335672,485.38108 72.09375,477.03125 C 78.700147,469.95089 90.443935,457.39725 97.84375,449.46875 C 106.58782,442.80293 115.94378,438.11903 125.40625,444.71875 C 154.61528,465.09096 129.70643,481.33548 156.46875,499.78125 C 179.2963,515.515 197.0346,494.19439 206.5625,484.28125 C 216.09039,475.38208 225.87039,452.94045 208.25,436.21875 C 181.24468,410.59074 181.0008,442.5263 154.34375,415.625 C 146.8244,408.03675 148.52223,398.7236 152.71875,390.6875 C 162.50048,380.21082 171.34435,370.73058 181.65625,359.6875 C 189.63814,354.12529 198.07022,350.8989 206.59375,356.84375 C 235.80278,377.21597 210.89393,393.46049 237.65625,411.90625 C 260.48381,427.64 278.2221,406.31939 287.75,396.40625 C 297.2779,387.50709 307.05788,365.06545 289.4375,348.34375 C 262.43217,322.71574 262.18831,354.6513 235.53125,327.75 C 228.61085,320.76618 229.48239,312.3187 232.9375,304.75 C 242.88113,294.10305 250.30513,286.12079 260.3125,275.40625 C 269.58944,267.99916 279.63599,262.14281 289.78125,269.21875 C 318.99027,289.59095 294.08143,305.83549 320.84375,324.28125 C 343.67132,340.01499 361.4096,318.66314 370.9375,308.75 C 380.46539,299.85082 390.24538,277.44046 372.625,260.71875 C 345.61969,235.09076 345.37581,267.0263 318.71875,240.125 C 310.81686,232.1507 313.08978,222.23523 317.75,213.9375 C 325.43535,205.70982 332.35427,198.29904 339.84375,190.28125 C 350.03617,181.7365 361.24261,173.40496 372.625,181.34375 C 401.83402,201.71597 376.92519,217.96049 403.6875,236.40625 C 426.51507,252.14 444.25335,230.78813 453.78125,220.875 C 463.30914,211.97582 473.08913,189.56545 455.46875,172.84375 C 428.46342,147.21575 428.21956,179.1513 401.5625,152.25 C 392.92822,143.53661 396.43297,132.52084 401.9375,123.8125 C 408.88125,116.37922 418.72839,105.85196 425.1875,98.9375 C 434.34676,91.690597 444.19512,86.124434 454.1875,93.09375 C 483.39653,113.46596 458.51893,129.67924 485.28125,148.125 C 508.10879,163.85875 525.81585,142.53813 535.34375,132.625 C 544.87162,123.72583 554.65164,101.2842 537.03125,84.5625 C 510.02595,58.934502 509.78206,90.870045 483.125,63.96875 C 475.31201,56.084175 477.4465,46.33341 482,38.09375 C 488.2428,31.403309 505.30775,13.142176 507.09375,11.21875 L 11.21875,11.21875 z M 549.5,11.21875 C 561.8617,28.77411 543.58033,42.683869 566.6875,59.1875 C 583.08366,70.897998 595.87937,62.57655 606.09375,55.65625 L 606.09375,11.21875 L 549.5,11.21875 z"
     id="oben1"
     style="fill:#fcdd09;fill-opacity:1;fill-rule:nonzero;stroke:none;stroke-width:16.10849953;marker-mid:none;stroke-miterlimit:4;stroke-dasharray:none;stroke-opacity:1" />
  <path
     d="M 139.90625,15.65625 C 123.40498,15.65625 110.03125,21.444304 110.03125,28.5625 C 110.03125,35.680695 123.40499,41.437501 139.90625,41.4375 C 156.40751,41.4375 169.8125,35.680694 169.8125,28.5625 C 169.8125,21.444305 156.40752,15.65625 139.90625,15.65625 z M 102.71875,28.5625 C -9.2434567,94.177335 51.185685,226.5625 50.75,226.5625 C 49.856989,226.56249 82.90366,217.27352 82.6875,216.59375 C 54.811338,128.92999 93.94342,77.960305 138.75,78.15625 C 175.57723,78.314743 225.97938,118.38104 196.9375,216.59375 C 196.91294,216.67676 228.13481,226.5625 228.875,226.5625 C 229.02934,226.56249 292.4482,87.269955 174.3125,28.5625 C 174.16962,28.491495 176.41166,46.467665 138.5625,45.15625 C 101.70397,43.879154 102.76907,28.5611 102.71875,28.5625 z M 167.78125,55.25 L 172.96875,58.875 L 173,58.875 L 170.90625,61.9375 C 170.89521,61.930167 170.88599,61.944804 170.875,61.9375 C 170.17843,61.474679 170.0572,61.35426 169.53125,61 C 168.40434,60.240958 167.14834,59.402378 166.625,59.03125 C 166.23928,58.757713 165.99827,58.582221 165.8125,58.4375 C 165.79,58.419974 165.76909,58.388504 165.75,58.375 L 165.65625,58.3125 C 165.55511,58.244005 165.50643,58.219616 165.28125,57.9375 L 167.78125,55.25 z M 112.4375,56.5625 L 114.9375,59.25 C 114.73464,59.502233 114.67126,59.545383 114.5625,59.625 C 114.52625,59.651539 114.48384,59.713197 114.4375,59.75 C 114.25214,59.897212 113.97759,60.068675 113.59375,60.34375 C 113.091,60.704038 111.87393,61.532229 110.8125,62.25 C 110.26128,62.622755 110.12289,62.753059 109.375,63.25 C 109.36398,63.257321 109.35481,63.24265 109.34375,63.25 L 107.25,60.1875 L 107.28125,60.1875 L 112.4375,56.5625 z M 77.125,82.40625 L 78.6875,83.65625 C 78.687936,83.656599 79.1872,84.249419 79.1875,84.25 C 79.1878,84.250581 79.317958,84.6296 79.34375,84.78125 C 79.395335,85.08455 79.365059,85.275172 79.34375,85.40625 C 79.301133,85.668407 79.253293,85.760496 79.21875,85.84375 C 79.149664,86.010258 79.116515,86.093091 79.0625,86.1875 C 78.954469,86.376317 78.807562,86.595933 78.5625,86.96875 C 78.137773,87.614892 77.180519,88.984343 75.90625,90.8125 C 75.721897,91.076986 75.739177,91.077891 75.53125,91.375 C 75.517879,91.394107 75.513472,91.387004 75.5,91.40625 L 72.46875,89.3125 L 72.5,89.28125 L 76,84.0625 L 77.125,82.40625 z M 204.21875,82.75 L 207.71875,88 L 207.75,88.03125 L 204.71875,90.125 C 204.70593,90.106689 204.70023,90.111937 204.6875,90.09375 C 204.50982,89.839837 204.5042,89.8241 204.34375,89.59375 C 203.13121,87.852991 202.20045,86.5018 201.75,85.8125 C 201.49284,85.418977 201.33643,85.169448 201.21875,84.96875 C 201.19438,84.927185 201.17673,84.838315 201.15625,84.8125 C 201.07784,84.713665 201.03043,84.715493 200.90625,84.21875 L 204.21875,82.75 z M 219.71875,110.78125 L 222.59375,114.625 L 222.96875,114.59375 L 223.5,115.90625 L 225.5625,121.125 C 225.68794,121.42646 225.67046,121.44196 225.8125,121.78125 L 225.8125,121.8125 L 222.375,123.21875 C 222.36922,123.20494 222.38075,123.20124 222.375,123.1875 C 221.34671,120.73065 220.74227,119.27456 220.40625,118.40625 C 220.2373,117.96966 220.13589,117.6867 220.0625,117.46875 C 219.98911,117.2508 219.92746,117.34605 219.90625,116.65625 L 219.71875,110.78125 z M 58.71875,116.03125 C 58.719364,116.03133 59.530718,116.37462 59.53125,116.375 C 59.531782,116.37538 60.062068,116.90554 60.0625,116.90625 C 60.062932,116.90696 60.214337,117.25149 60.25,117.375 C 60.285663,117.49851 60.302999,117.57478 60.3125,117.65625 C 60.388509,118.30797 60.281751,118.31338 60.25,118.4375 C 60.240122,118.47611 60.198157,118.52484 60.1875,118.5625 C 60.129646,118.76692 60.095892,118.93848 59.96875,119.28125 C 59.669176,120.08888 59.075132,121.60118 57.875,124.46875 C 57.868778,124.48362 57.881255,124.48506 57.875,124.5 L 54.4375,123.09375 L 54.4375,123.0625 C 54.622758,122.61997 54.592943,122.6599 54.75,122.28125 L 56.75,117.1875 L 56.90625,116.78125 L 57.21875,116.5 C 57.295307,116.43101 57.419014,116.32694 57.625,116.21875 C 57.727993,116.16466 58.030574,116.06267 58.03125,116.0625 C 58.031926,116.06233 58.718136,116.03117 58.71875,116.03125 z M 54.46875,148.96875 L 56.03125,153.03125 C 56.263029,153.63024 56.168167,153.5813 56.1875,153.8125 C 56.206833,154.0437 56.233571,154.34373 56.25,154.8125 C 56.282269,155.7332 56.302633,157.33279 56.3125,159.9375 L 56.3125,159.96875 C 56.312618,160.00067 56.312388,159.99901 56.3125,160.03125 L 52.625,160.09375 L 52.625,160.03125 L 52.4375,153.75 L 52.34375,151.15625 L 53.3125,151.4375 L 54.46875,148.96875 z M 225.53125,150.5625 C 225.53215,150.56231 226.53036,150.62468 226.53125,150.625 C 226.5317,150.62516 226.87456,150.78098 226.875,150.78125 C 226.87544,150.78152 227.06198,150.91517 227.125,150.96875 C 227.25103,151.07592 227.31613,151.14335 227.375,151.21875 C 227.49274,151.36955 227.55695,151.48895 227.59375,151.5625 C 227.74094,151.85671 227.71875,151.9375 227.71875,151.9375 L 227.78125,152.1875 L 227.78125,152.4375 L 227.625,158.75 L 227.625,158.78125 L 223.9375,158.75 C 223.93756,158.7339 223.93744,158.73477 223.9375,158.71875 L 223.9375,158.6875 C 223.94701,156.05714 223.97577,154.4572 224,153.53125 C 224.01226,153.06267 224.01611,152.75946 224.03125,152.53125 C 224.04639,152.30304 223.91603,152.42036 224.1875,151.71875 C 224.21814,151.63956 224.23851,151.52828 224.3125,151.40625 C 224.34949,151.34524 224.40911,151.29284 224.46875,151.21875 C 224.52839,151.14466 224.68705,150.96914 224.6875,150.96875 C 224.68839,150.96797 225.53035,150.56269 225.53125,150.5625 z M 220.46875,188.5 L 223.90625,189.75 L 222.59375,195.90625 L 222.59375,195.9375 L 218.96875,195.21875 C 218.97164,195.20331 218.96588,195.20287 218.96875,195.1875 L 219.0625,194.75 C 219.47494,192.5677 219.78028,190.99359 219.96875,190.15625 C 220.07261,189.69484 220.15503,189.3853 220.21875,189.15625 C 220.23402,189.10137 220.2706,189.04297 220.28125,189 C 220.31503,188.86363 220.32783,188.76863 220.46875,188.5 z M 58.28125,188.8125 C 58.281907,188.81255 58.967993,188.99961 58.96875,189 C 58.969507,189.00039 59.283399,189.19935 59.375,189.28125 C 59.466601,189.36315 59.512838,189.43903 59.5625,189.5 C 59.959792,189.98775 59.896376,190.00463 59.9375,190.125 C 60.019748,190.36575 60.058963,190.60792 60.15625,191.03125 C 60.33211,191.79647 60.677565,193.46538 61.15625,196 L 61.25,196.5 C 61.253138,196.51678 61.246847,196.51438 61.25,196.53125 L 57.625,197.25 L 57.625,197.21875 L 56.3125,191.03125 L 56.21875,190.625 L 56.34375,190.1875 C 56.370711,190.08456 56.411389,189.9614 56.53125,189.75 C 56.591181,189.6443 56.812024,189.37549 56.8125,189.375 C 56.812976,189.37451 57.405687,188.93774 57.40625,188.9375 C 57.406813,188.93726 58.280593,188.81245 58.28125,188.8125 z M 189.09375,218 L 177.46875,252.78125 L 220.8125,270.25 L 232.4375,235.46875 L 189.09375,218 z M 93.09375,218.03125 L 49.75,235.46875 L 61.375,270.25 L 104.71875,252.8125 L 93.09375,218.03125 z"
     id="hufeisen2"
     style="fill:#000000;fill-opacity:1;fill-rule:evenodd;stroke:none;stroke-width:11.30000019;stroke-linecap:round;stroke-linejoin:miter;stroke-miterlimit:4;stroke-dasharray:none;stroke-opacity:1" />
  <path
     d="M 439.5625,358.125 L 325.15625,409.96875 L 342.65625,449.53125 L 457.0625,397.6875 L 439.5625,358.125 z M 383.75,370.96875 C 383.57363,371.07704 383.11454,371.36514 382.15625,371.875 C 380.23966,372.89473 376.3634,374.84419 368.78125,378.53125 L 371.25,383.625 C 378.86472,379.9221 382.78174,377.92422 384.8125,376.84375 C 385.82788,376.30351 386.36467,375.99866 386.71875,375.78125 C 386.89579,375.67255 387.00491,375.58193 387.15625,375.46875 C 387.23192,375.41216 387.32067,375.3594 387.4375,375.25 C 387.49591,375.1953 387.57269,375.12766 387.65625,375.03125 C 387.73981,374.93484 387.96875,374.59375 387.96875,374.59375 L 383.09375,371.75 C 383.09375,371.75 383.29349,371.43779 383.375,371.34375 C 383.45651,371.24971 383.54122,371.17419 383.59375,371.125 C 383.68848,371.03629 383.71159,370.99756 383.75,370.96875 z M 413.5,423.9375 C 413.43453,423.93749 389.92188,432.90466 389.65625,433.25 C 389.34908,433.64934 476.80938,624.71399 476.65625,624.96875 C 476.39756,625.39917 499.0644,615.29749 499.21875,615.34375 C 499.37308,615.81813 413.55032,423.9361 413.5,423.9375 z"
     id="hammer3"
     style="fill:#fcdd09;fill-opacity:1;fill-rule:evenodd;stroke:none;stroke-width:4.5;stroke-linecap:round;stroke-linejoin:miter;stroke-miterlimit:4;stroke-dasharray:none;stroke-opacity:1" />
  <path
     d="M 486.40625,354.53125 C 486.35999,354.3769 468.36789,389.11629 467.9375,389.375 C 467.68273,389.52813 591.18062,459.63035 590.78125,459.9375 C 590.43591,460.20313 576.21873,403.49703 576.21875,403.5625 C 576.21735,403.61282 486.88064,354.68558 486.40625,354.53125 z M 548.09375,374.6875 L 545.34375,379.625 C 552.75324,383.72317 556.63544,385.77304 558.6875,386.8125 C 559.71353,387.33223 560.27472,387.61671 560.65625,387.78125 C 560.84701,387.86352 560.97661,387.91007 561.15625,387.96875 C 561.24607,387.99809 561.34331,388.02988 561.5,388.0625 C 561.57835,388.07881 561.68557,388.08087 561.8125,388.09375 C 561.93943,388.10663 562.3125,388.125 562.3125,388.125 L 561.875,382.46875 C 561.875,382.46875 562.25119,382.45618 562.375,382.46875 C 562.49881,382.48132 562.58579,382.51658 562.65625,382.53125 C 562.75987,382.55282 562.79809,382.54832 562.84375,382.5625 C 562.64412,382.47571 562.16514,382.26064 561.21875,381.78125 C 559.28206,380.80023 555.47155,378.76814 548.09375,374.6875 z M 515.375,421.59375 C 515.12024,421.74689 464.05559,519.41161 463.65625,519.71875 C 463.31091,519.98437 476.625,549.372 476.625,549.4375 C 476.6236,549.48782 539.59941,434.93558 539.125,434.78125 C 539.07874,434.6269 515.80535,421.33504 515.375,421.59375 z M 439.375,561.25 C 439.06784,561.64934 413.49688,609.77649 413.34375,610.03125 C 413.08504,610.46163 435.7519,624.92249 435.90625,624.96875 C 436.06059,625.44312 454.51907,590.59235 454.46875,590.59375 C 454.40328,590.59373 439.64062,560.90466 439.375,561.25 z"
     id="eisen4"
     style="fill:#fcdd09;fill-opacity:1;fill-rule:nonzero;stroke:none;stroke-width:16.10849953;marker-mid:none;stroke-miterlimit:4;stroke-dasharray:none;stroke-opacity:1" />
  <path
     d="M 611.72211,5.616445 L 611.72211,455.50932 C 611.72211,636.86748 475.88131,783.19951 308.36465,783.19951 C 141.45713,783.19951 5.61636,636.86748 5.61636,455.50932 L 5.61636,5.616445 L 611.72211,5.616445"
     id="schildrand5"
     style="fill:none;fill-opacity:1;fill-rule:evenodd;stroke:#000000;stroke-width:11.2329998;stroke-linejoin:miter;stroke-miterlimit:4;stroke-dasharray:none;stroke-opacity:1" />
</svg>

<svg xmlns="http://www.w3.org/2000/svg" version="1.0" width="617.339" height="788.816"><path d="M611.722 5.616V455.51c0 181.358-135.84 327.69-303.357 327.69-166.908 0-302.749-146.332-302.749-327.69V5.616h606.106" style="fill:#000;fill-opacity:1;fill-rule:evenodd;stroke:#000;stroke-width:11.23279953;stroke-linejoin:miter;stroke-miterlimit:4;stroke-dasharray:none;stroke-opacity:1"/><path d="M11.219 11.219V455.5c0 26.756 3.007 52.713 8.656 77.531 1.426-1.537 1.22-1.34 2.938-3.187 8.913-2.93 16.171-1.81 21.156 2.718 27.344 24.847 3.128 33.98 31.062 55.063 22.13 16.701 40.566-5.618 50.094-15.531 9.528-8.9 19.308-31.31 1.688-48.032-27.006-25.628-27.25 6.308-53.907-20.593-7.984-8.057-5.57-18.088-.812-26.438 6.606-7.08 18.35-19.634 25.75-27.562 8.744-6.666 18.1-11.35 27.562-4.75 29.21 20.372 4.3 36.616 31.063 55.062 22.827 15.734 40.566-5.587 50.094-15.5 9.527-8.899 19.307-31.34 1.687-48.062-27.005-25.628-27.25 6.307-53.906-20.594-7.52-7.588-5.822-16.901-1.625-24.938 9.781-10.476 18.625-19.956 28.937-31 7.982-5.562 16.414-8.788 24.938-2.843 29.209 20.372 4.3 36.616 31.062 55.062 22.828 15.734 40.566-5.587 50.094-15.5 9.528-8.899 19.308-31.34 1.688-48.062-27.006-25.628-27.25 6.307-53.907-20.594-6.92-6.984-6.049-15.431-2.594-23 9.944-10.647 17.368-18.63 27.375-29.344 9.277-7.407 19.324-13.263 29.47-6.187 29.208 20.372 4.3 36.616 31.062 55.062 22.827 15.734 40.566-5.618 50.094-15.531 9.527-8.9 19.307-31.31 1.687-48.031-27.005-25.628-27.25 6.307-53.906-20.594-7.902-7.974-5.63-17.89-.969-26.188 7.685-8.227 14.604-15.638 22.094-23.656 10.192-8.544 21.399-16.876 32.781-8.937 29.209 20.372 4.3 36.616 31.063 55.062 22.827 15.734 40.565-5.618 50.093-15.531 9.528-8.9 19.308-31.31 1.688-48.031-27.006-25.628-27.25 6.307-53.906-20.594-8.635-8.713-5.13-19.73.375-28.438 6.943-7.433 16.79-17.96 23.25-24.874 9.159-7.247 19.007-12.814 29-5.844 29.209 20.372 4.33 36.585 31.093 55.031 22.828 15.734 40.535-5.587 50.063-15.5 9.528-8.9 19.308-31.34 1.687-48.063-27.005-25.627-27.249 6.308-53.906-20.593-7.813-7.885-5.678-17.636-1.125-25.875 6.243-6.69 23.308-24.952 25.094-26.875H11.219zm538.281 0c12.362 17.555-5.92 31.465 17.188 47.968 16.396 11.711 29.191 3.39 39.406-3.53V11.218H549.5z" style="fill:#fcdd09;fill-opacity:1;fill-rule:nonzero;stroke:none;stroke-width:16.10849953;marker-mid:none;stroke-miterlimit:4;stroke-dasharray:none;stroke-opacity:1"/><path d="M139.906 15.656c-16.501 0-29.875 5.788-29.875 12.906 0 7.119 13.374 12.876 29.875 12.875 16.502 0 29.906-5.756 29.906-12.874 0-7.119-13.404-12.907-29.906-12.907zM102.72 28.562c-111.962 65.615-51.533 198-51.969 198-.893 0 32.154-9.288 31.938-9.968C54.81 128.93 93.942 77.96 138.75 78.156c36.827.159 87.23 40.225 58.188 138.438-.025.083 31.197 9.969 31.937 9.969.154 0 63.573-139.293-54.563-198-.142-.072 2.1 17.905-35.75 16.593-36.858-1.277-35.793-16.595-35.843-16.593zM167.78 55.25l5.188 3.625H173l-2.094 3.063c-.01-.008-.02.007-.031 0-.697-.463-.818-.584-1.344-.938-1.127-.759-2.383-1.598-2.906-1.969a23.411 23.411 0 0 1-.813-.593c-.022-.018-.043-.05-.062-.063l-.094-.063c-.1-.068-.15-.092-.375-.374l2.5-2.688zm-55.344 1.313 2.5 2.687c-.202.252-.266.295-.374.375-.037.027-.08.088-.126.125-.185.147-.46.319-.843.594-.503.36-1.72 1.188-2.781 1.906-.552.373-.69.503-1.438 1-.011.007-.02-.007-.031 0l-2.094-3.063h.031l5.156-3.624zM77.126 82.406l1.563 1.25.5.594s.13.38.156.531c.051.304.021.494 0 .625-.043.262-.09.354-.125.438-.07.166-.102.25-.156.344-.109.188-.255.408-.5.78-.425.647-1.382 2.016-2.657 3.844-.184.265-.167.266-.375.563-.013.02-.018.012-.031.031l-3.031-2.094.031-.03 3.5-5.22 1.125-1.656zm127.094.344 3.5 5.25.031.031-3.031 2.094c-.013-.018-.019-.013-.031-.031-.178-.254-.184-.27-.344-.5-1.213-1.741-2.144-3.092-2.594-3.781a20.98 20.98 0 0 1-.531-.844c-.025-.042-.042-.13-.063-.156-.078-.1-.126-.098-.25-.594l3.313-1.469zm15.5 28.031 2.875 3.844.375-.031.531 1.312 2.063 5.219c.125.301.107.317.25.656v.031l-3.438 1.407c-.006-.014.006-.018 0-.031-1.028-2.457-1.633-3.913-1.969-4.782-.169-.436-.27-.72-.344-.937-.073-.218-.135-.123-.156-.813l-.187-5.875zm-161 5.25.812.344.532.531c0 .001.151.345.187.469.036.124.053.2.063.281.076.652-.031.657-.063.781-.01.04-.052.088-.063.126-.057.204-.091.375-.218.718-.3.808-.894 2.32-2.094 5.188-.006.015.006.016 0 .031l-3.438-1.406v-.031c.186-.443.156-.403.313-.782l2-5.094.156-.406.313-.281c.076-.069.2-.173.406-.281.103-.054.406-.156.406-.156l.688-.032zm-4.25 32.938 1.562 4.062c.232.6.137.55.157.781.019.232.046.532.062 1 .032.921.053 2.52.063 5.125v.094l-3.688.063v-.063l-.188-6.281-.093-2.594.968.281 1.157-2.468zm171.062 1.594 1 .062.344.156s.187.134.25.188c.126.107.191.174.25.25.118.15.182.27.219.344.147.294.125.375.125.375l.062.25v.25l-.156 6.312v.031l-3.688-.031v-.062c.01-2.63.039-4.23.063-5.157.012-.468.016-.772.031-1 .015-.228-.115-.11.156-.812.031-.08.052-.19.125-.313.037-.06.097-.113.157-.187s.218-.25.219-.25l.843-.406zM220.47 188.5l3.437 1.25-1.312 6.156v.031l-3.625-.718c.003-.016-.003-.016 0-.031l.094-.438c.412-2.182.717-3.756.906-4.594.104-.461.186-.77.25-1 .015-.055.052-.113.062-.156.034-.136.047-.231.188-.5zm-162.188.313.688.187s.314.2.406.281c.092.082.138.158.188.219.397.488.333.505.374.625.083.24.122.483.22.906.175.765.52 2.434 1 4.969l.093.5c.003.017-.003.014 0 .031l-3.625.719v-.031l-1.313-6.188-.093-.406.125-.438c.027-.102.067-.226.187-.437.06-.106.281-.375.282-.375l.593-.438.875-.125zM189.094 218l-11.625 34.781 43.344 17.469 11.625-34.781L189.094 218zm-96 .031L49.75 235.47l11.625 34.781 43.344-17.438-11.625-34.78z" style="fill:#000;fill-opacity:1;fill-rule:evenodd;stroke:none;stroke-width:11.30000019;stroke-linecap:round;stroke-linejoin:miter;stroke-miterlimit:4;stroke-dasharray:none;stroke-opacity:1"/><path d="m439.563 358.125-114.407 51.844 17.5 39.562 114.406-51.844-17.5-39.562zm-55.813 12.844c-.176.108-.635.396-1.594.906-1.916 1.02-5.793 2.97-13.375 6.656l2.469 5.094c7.615-3.703 11.532-5.7 13.563-6.781 1.015-.54 1.552-.845 1.906-1.063.177-.108.286-.2.437-.312.076-.057.165-.11.281-.219.059-.055.136-.122.22-.219.083-.096.312-.437.312-.437l-4.875-2.844s.2-.312.281-.406c.082-.094.166-.17.219-.219.094-.089.118-.127.156-.156zm29.75 52.969c-.065 0-23.578 8.967-23.844 9.312-.307.4 87.153 191.464 87 191.719-.258.43 22.408-9.672 22.563-9.625.154.474-85.669-191.408-85.719-191.407z" style="fill:#fcdd09;fill-opacity:1;fill-rule:evenodd;stroke:none;stroke-width:4.5;stroke-linecap:round;stroke-linejoin:miter;stroke-miterlimit:4;stroke-dasharray:none;stroke-opacity:1"/><path d="M486.406 354.531c-.046-.154-18.038 34.585-18.469 34.844-.254.153 123.244 70.255 122.844 70.563-.345.265-14.562-56.441-14.562-56.375-.002.05-89.338-48.877-89.813-49.032zm61.688 20.156-2.75 4.938c7.41 4.098 11.291 6.148 13.343 7.188 1.027.52 1.588.804 1.97.968.19.083.32.13.5.188.09.03.186.06.343.094.078.016.186.018.313.03.126.014.5.032.5.032l-.438-5.656s.376-.013.5 0c.124.012.21.048.281.062.104.022.142.017.188.031a31.41 31.41 0 0 1-1.625-.78c-1.937-.982-5.747-3.014-13.125-7.094zm-32.719 46.907c-.255.153-51.32 97.818-51.719 98.125-.345.265 12.969 29.653 12.969 29.718-.001.05 62.974-114.501 62.5-114.656-.046-.154-23.32-13.446-23.75-13.187zm-76 139.656c-.307.4-25.878 48.526-26.031 48.781-.259.43 22.408 14.891 22.562 14.938.155.474 18.613-34.377 18.563-34.375-.066 0-14.828-29.69-15.094-29.344z" style="fill:#fcdd09;fill-opacity:1;fill-rule:nonzero;stroke:none;stroke-width:16.10849953;marker-mid:none;stroke-miterlimit:4;stroke-dasharray:none;stroke-opacity:1"/><path d="M611.722 5.616V455.51c0 181.358-135.84 327.69-303.357 327.69-166.908 0-302.749-146.332-302.749-327.69V5.616h606.106" style="fill:none;fill-opacity:1;fill-rule:evenodd;stroke:#000;stroke-width:11.2329998;stroke-linejoin:miter;stroke-miterlimit:4;stroke-dasharray:none;stroke-opacity:1"/></svg>
